X:1
T:Blood on the Capitol Steps - Chorus - Organ
M:4/4
L:1/8
K:Cmin
"Bb"[D4F4B4] [D4F4B4] | "F"[C4F4A4] [C4F4A4] |
"Gm"[D4G4B4] [D4G4B4] | "Eb"[E4G4B4] [E4G4B4] |
"Bb"[D4F4B4] [D4F4B4] | "F"[C4F4A4] [C4F4A4] |
"Cm"[C4E4G4] [C4E4G4] | "F"[C4F4A4] [C4F4A4] |
